assets/symbols/mulberry/empty.svg

<svg height="850.394" viewBox="0 0 850.394 850.394" width="850.394" xmlns="http://www.w3.org/2000/svg"><g fill="none"><path d="m368 368.249h113.386v113.386h-113.386z"/><g stroke="#231f20" stroke-width="21"><path d="m752.547 157.804c0 30.029-87.658 54.366-195.795 54.366-108.145 0-195.811-24.337-195.811-54.366 0-30.037 87.667-54.381 195.811-54.381 108.137-.001 195.795 24.344 195.795 54.381z"/><path d="m360.941 157.804 53.294 505.86c0 46.076 63.81 83.424 142.517 83.424 78.706 0 142.508-37.348 142.508-83.424l53.287-505.86"/><path d="m687.413 686.94c0 29.735-57.938 59.575-130.178 59.575s-131.443-29.84-131.443-59.575c0-29.743 58.57-53.868 130.811-53.868s130.81 24.125 130.81 53.868z"/></g><path d="m0 0h850.394v850.394h-850.394z"/><path d="m156 681.039 191.259-.199m-75.219 72.098 76.681-72.364-76.812-72.345" stroke="#000" stroke-linecap="round" stroke-linejoin="round" stroke-width="14.492"/><path d="m156 681.039v-555.039m0 0h70.394m-70.394 267.894h70.394m-70.394 147.877h70.394m-70.394-70.724h70.394m-70.394 145.735h70.394m-70.394-349.334h70.394m-70.394 64.295h70.394m-70.394-132.876h70.394" stroke="#000" stroke-linecap="round" stroke-linejoin="round" stroke-width="13.407"/></g></svg>

<svg xmlns="http://www.w3.org/2000/svg" width="850.394" height="850.394" viewBox="0 0 850.394 850.394" overflow="visible"><path fill="none" d="M368 368.249h113.386v113.386H368z"/><path d="M752.547 157.804c0 30.029-87.658 54.366-195.795 54.366-108.145 0-195.811-24.337-195.811-54.366 0-30.037 87.667-54.381 195.811-54.381 108.137-.001 195.795 24.344 195.795 54.381z" fill="none" stroke="#231f20" stroke-width="21"/><path d="M360.941 157.804l53.294 505.86c0 46.076 63.81 83.424 142.517 83.424 78.706 0 142.508-37.348 142.508-83.424l53.287-505.86" fill="none" stroke="#231f20" stroke-width="21"/><path d="M687.413 686.94c0 29.735-57.938 59.575-130.178 59.575s-131.443-29.84-131.443-59.575c0-29.743 58.57-53.868 130.811-53.868s130.81 24.125 130.81 53.868z" fill="none" stroke="#231f20" stroke-width="21"/><path fill="none" d="M0 0h850.394v850.394H0z"/><path fill="none" stroke="#000" stroke-width="14.492" stroke-linecap="round" stroke-linejoin="round" d="M156 681.039l191.259-.199M272.04 752.938l76.681-72.364-76.812-72.345"/><path fill="none" stroke="#000" stroke-width="13.407" stroke-linecap="round" stroke-linejoin="round" d="M156 681.039V126M156 126h70.394M156 393.894h70.394M156 541.771h70.394M156 471.047h70.394M156 616.782h70.394M156 267.448h70.394M156 331.743h70.394M156 198.867h70.394"/></svg>
